X: 93
M: 6/8
L: 1/8
K: Am
cdc BcA | B2E A2B | cdc BA^G | A3 :: c2d | efe dcB | c2G c2d | efe dcB | c3 e2c |
cBc d2c | BAB c2B | A^GA BAB | E3 A2B | cdc BcA | B2E A2B | cdc BA^G | A3 :|


